X:285
T:Richmond Green. (p)1687.PLFD1.285
M:6/4
L:1/4
Q:3/4=80
S:Playford, Dancing Master,7th Ed,1st Supp,1687.
O:England;London
H:1687.
Z:Chris Partington
K:Bb
B|(AB)GcA2|^F3D>EF|GAB(A/B/)(c/B/)(A/G/)|Ac2e2d|
f2gfdB|Fc2A2f|=efde^c2|d3-d2:|
|:b|a>g/2a/4badg|cf=ef2c|d>eddgc|AFABGD|
EGFEcB|AFGFcd|e>fgfdc/B/|A2GG2:|
